vms/client/nx_vms_client_core/external_resources/skin/24x24/Outline/camera_2.svg

<svg width="24" height="24" viewBox="0 0 24 24" fill="none" xmlns="http://www.w3.org/2000/svg">
<path fill-rule="evenodd" clip-rule="evenodd" d="M20 5H4V7.49996H6H18H20V5ZM4 9.5H4.00152L4.00418 13.0082C4.00754 17.4229 7.58734 21 12.0021 21C16.4192 21 20 17.4192 20 13.0021V9.5C21.1046 9.5 22 8.60457 22 7.5V5C22 3.89543 21.1046 3 20 3H4C2.89543 3 2 3.89543 2 5V7.5C2 8.60457 2.89543 9.5 4 9.5ZM6.00418 13.0067L6.00152 9.5H18V13.0021C18 16.3147 15.3146 19 12.0021 19C8.69132 19 6.0067 16.3174 6.00418 13.0067ZM12 16.4444C12.9205 16.4444 13.6667 15.6982 13.6667 14.7778C13.6667 13.8573 12.9205 13.1111 12 13.1111C11.0795 13.1111 10.3333 13.8573 10.3333 14.7778C10.3333 15.6982 11.0795 16.4444 12 16.4444Z" fill="white" class="Primary"/>
</svg>

<svg xmlns="http://www.w3.org/2000/svg" width="24" height="24" fill="none" viewBox="0 0 24 24">
  <g class="24x24/Outline/camera_2">
    <path fill="#B0B9C4" fill-rule="evenodd" d="M20 5H4v2.5h16V5ZM4 9.5h.002l.002 3.508A7.998 7.998 0 0 0 20 13.002V9.5a2 2 0 0 0 2-2V5a2 2 0 0 0-2-2H4a2 2 0 0 0-2 2v2.5a2 2 0 0 0 2 2Zm2.004 3.507L6.002 9.5H18v3.502a5.998 5.998 0 0 1-11.996.005ZM12 16.444a1.667 1.667 0 1 0 0-3.333 1.667 1.667 0 0 0 0 3.333Z" class="Primary" clip-rule="evenodd"/>
  </g>
</svg>
